X: 37601
T: Smithstown Jaunt, The
R: jig
M: 6/8
K: Gmajor
|:a|b2g gdB|cde d2B|cde deB|~A3 aga|
b2g gdB|cde d2B|d2B cBA|~G3 G2:|
|:A|BGG DGG|e/f/ge dBG|e2g dcB|~A3 AGA|
BGG DGG|e/f/ge dBG|deB cBA|~G3 G2:|

